X:203
T:Oh! Then dearest Ellen. CJF.203
R:air
S:C.J.Fox MS, 1829/33, Beverley,E.Yorks.
N:The bar marked with an asterisk has a bar line in the
N:middle, in the MS. – PJH.
B:Kidson Coll.Mitchell Lib.M1805
O:England
A:East Yorkshire
Z:vmp.P J Headford 2000 & 2008
M:6/8
L:1/8
Q:3/8=50
K:D
“p”a/g/|fdA B<ed|c>BA d<f” f”a|g>ag f>ga|\
b>B{f/}e {d}c2a/g/|{g}f{e}dA B<ed|c>BA (d<f)A|!
(B/c/)(d/e/)(f/g/) a<f g/e/|d>ec{e/}d2a|c>dB{B}A2(d/c/)|\
(B/A/)(B/G/)(e/d/) (c/B/)(c/A/)(f/e/)|!
(d/c/)(d/B/)(g/e/) e<HA A/G/|\
(F<A) (d/e/) f<a (g/e/)|d>ec”*”d2d|\
g>abHa2d|d>cB c<He A/G/|F/A/d/f/a/f/ b>HB g/e/|d>ecd2|]

